collections/assainissement/svg_nb/ASS_BASSINE.svg

<?xml version="1.0" encoding="UTF-8" standalone="no"?>
<svg
   width="100"
   height="100"
   version="1.1"
   id="svg2391"
   sodipodi:docname="ASS_BASSINE.svg"
   inkscape:version="1.1.1 (3bf5ae0d25, 2021-09-20)"
   xmlns:inkscape="http://www.inkscape.org/namespaces/inkscape"
   xmlns:sodipodi="http://sodipodi.sourceforge.net/DTD/sodipodi-0.dtd"
   xmlns="http://www.w3.org/2000/svg"
   xmlns:svg="http://www.w3.org/2000/svg"
   xmlns:rdf="http://www.w3.org/1999/02/22-rdf-syntax-ns#"
   xmlns:cc="http://creativecommons.org/ns#"
   xmlns:dc="http://purl.org/dc/elements/1.1/">
  <metadata
     id="metadata829">
    <rdf:RDF>
      <cc:Work
         rdf:about="">
        <dc:format>image/svg+xml</dc:format>
        <dc:type
           rdf:resource="http://purl.org/dc/dcmitype/StillImage" />
        <cc:license
           rdf:resource="http://creativecommons.org/licenses/by-sa/4.0/" />
        <dc:creator>
          <cc:Agent>
            <dc:title>ASTEE</dc:title>
          </cc:Agent>
        </dc:creator>
        <dc:contributor>
          <cc:Agent>
            <dc:title>ASTEE; Le Grand Lyon</dc:title>
          </cc:Agent>
        </dc:contributor>
        <dc:language>FR</dc:language>
        <dc:subject>
          <rdf:Bag>
            <rdf:li>eau</rdf:li>
            <rdf:li>potable</rdf:li>
            <rdf:li>assainissement</rdf:li>
          </rdf:Bag>
        </dc:subject>
        <dc:date />
      </cc:Work>
      <cc:License
         rdf:about="http://creativecommons.org/licenses/by-sa/4.0/">
        <cc:permits
           rdf:resource="http://creativecommons.org/ns#Reproduction" />
        <cc:permits
           rdf:resource="http://creativecommons.org/ns#Distribution" />
        <cc:requires
           rdf:resource="http://creativecommons.org/ns#Notice" />
        <cc:requires
           rdf:resource="http://creativecommons.org/ns#Attribution" />
        <cc:permits
           rdf:resource="http://creativecommons.org/ns#DerivativeWorks" />
        <cc:requires
           rdf:resource="http://creativecommons.org/ns#ShareAlike" />
      </cc:License>
    </rdf:RDF>
  </metadata>
  <defs
     id="defs2395" />
  <sodipodi:namedview
     pagecolor="#ffffff"
     bordercolor="#666666"
     borderopacity="1"
     objecttolerance="10"
     gridtolerance="10"
     guidetolerance="10"
     inkscape:pageopacity="0"
     inkscape:pageshadow="2"
     inkscape:window-width="1598"
     inkscape:window-height="837"
     id="namedview2393"
     showgrid="false"
     inkscape:zoom="3.0062"
     inkscape:cx="67.528"
     inkscape:cy="54.721"
     inkscape:window-x="0"
     inkscape:window-y="0"
     inkscape:window-maximized="1"
     inkscape:current-layer="svg2391"
     inkscape:pagecheckerboard="0"
     width="100px" />
  <path
     fill="#FFFFFF"
     fill-opacity="1"
     d="m 25.543,1.674 h 48.914 c 13.182,0 23.868,10.687 23.868,23.87 v 48.914 c 0,13.182 -10.688,23.868 -23.868,23.868 H 25.543 C 12.36,98.326 1.6747,87.638 1.6747,74.458 V 25.544 c 0,-13.183 10.6863,-23.87 23.8683,-23.87 z"
     id="path2385"
     style="fill:#feffff;fill-opacity:1;stroke:none" />
  <path
     fill="#000000"
     d="M 26.569,0.64153 C 12.242,0.64153 0.64153,12.242 0.64153,26.569 V 73.43 c 0,14.327 11.60147,25.928 25.92747,25.928 H 73.43 c 14.326,0 25.928,-11.601 25.928,-25.928 V 26.569 C 99.358,12.242 87.756,0.64153 73.43,0.64153 Z m 0,6.17777 H 73.43 c 9.916,0 19.75,9.6497 19.75,19.7497 V 73.43 c 0,10.467 -10.202,19.76 -19.75,19.76 H 26.569 C 16.837,93.19 6.8115,83.897 6.8115,73.43 V 26.569 C 6.8115,15.55 16.469,6.8193 26.569,6.8193 Z M 15.407,45.739 a 34.593,34.593 0 0 0 69.183,0 z"
     id="path2387"
     style="stroke:none" />
</svg>

<?xml version="1.0" encoding="UTF-8"?>
<svg id="svg2391" width="100" height="100" version="1.1" xmlns="http://www.w3.org/2000/svg" xmlns:cc="http://creativecommons.org/ns#" xmlns:dc="http://purl.org/dc/elements/1.1/" xmlns:rdf="http://www.w3.org/1999/02/22-rdf-syntax-ns#">
 <metadata id="metadata829">
  <rdf:RDF>
   <cc:Work rdf:about="">
    <dc:format>image/svg+xml</dc:format>
    <dc:type rdf:resource="http://purl.org/dc/dcmitype/StillImage"/>
    <cc:license rdf:resource="http://creativecommons.org/licenses/by-sa/4.0/"/>
    <dc:creator>
     <cc:Agent>
      <dc:title>ASTEE</dc:title>
     </cc:Agent>
    </dc:creator>
    <dc:contributor>
     <cc:Agent>
      <dc:title>ASTEE; Le Grand Lyon</dc:title>
     </cc:Agent>
    </dc:contributor>
    <dc:language>FR</dc:language>
    <dc:subject>
     <rdf:Bag>
      <rdf:li>eau</rdf:li>
      <rdf:li>potable</rdf:li>
      <rdf:li>assainissement</rdf:li>
     </rdf:Bag>
    </dc:subject>
    <dc:date/>
   </cc:Work>
   <cc:License rdf:about="http://creativecommons.org/licenses/by-sa/4.0/">
    <cc:permits rdf:resource="http://creativecommons.org/ns#Reproduction"/>
    <cc:permits rdf:resource="http://creativecommons.org/ns#Distribution"/>
    <cc:requires rdf:resource="http://creativecommons.org/ns#Notice"/>
    <cc:requires rdf:resource="http://creativecommons.org/ns#Attribution"/>
    <cc:permits rdf:resource="http://creativecommons.org/ns#DerivativeWorks"/>
    <cc:requires rdf:resource="http://creativecommons.org/ns#ShareAlike"/>
   </cc:License>
  </rdf:RDF>
 </metadata>
 <path id="path2385" d="m25.543 1.674h48.914c13.182 0 23.868 10.687 23.868 23.87v48.914c0 13.182-10.688 23.868-23.868 23.868h-48.914c-13.183 0-23.868-10.688-23.868-23.868v-48.914c0-13.183 10.686-23.87 23.868-23.87z" fill="#feffff"/>
 <path id="path2387" d="m26.569 0.64153c-14.327 0-25.927 11.6-25.927 25.927v46.861c0 14.327 11.601 25.928 25.927 25.928h46.861c14.326 0 25.928-11.601 25.928-25.928v-46.861c0-14.327-11.602-25.927-25.928-25.927zm0 6.1778h46.861c9.916 0 19.75 9.6497 19.75 19.75v46.861c0 10.467-10.202 19.76-19.75 19.76h-46.861c-9.732 0-19.758-9.293-19.758-19.76v-46.861c0-11.019 9.6575-19.75 19.758-19.75zm-11.162 38.92a34.593 34.593 0 0 0 69.183 0z"/>
</svg>
